svg_80x80/sidekiq.svg

<svg viewBox="0 0 80 80" xmlns="http://www.w3.org/2000/svg">
<rect width="100%" height="100%" fill="white"/>
<path d="M72 40C72 57.6731 57.6731 72 40 72C38.5866 72 37.1946 71.9084 35.8296 71.7307C35.8299 71.7303 35.8302 71.7299 35.8305 71.7295C36.2703 71.1754 36.6294 71.0082 36.9361 70.8653C37.113 70.7829 37.2725 70.7086 37.42 70.5729C37.8233 70.2019 38.554 69.2033 38.1886 68.7669C37.9451 68.476 37.8233 67.8429 37.8233 66.8676C38.3765 66.5401 38.7962 66.3763 39.0824 66.3763C39.2935 66.3763 39.3164 66.0058 39.3514 65.4379C39.3876 64.8509 39.4368 64.053 39.7203 63.2351C40.0921 62.1623 40.9771 56.5749 42.3754 46.4729C43.233 43.9488 43.8136 42.5653 44.1172 42.3224C44.4209 42.0796 45.6323 41.0516 47.7514 39.2387C51.1168 37.1563 52.9936 35.9465 53.3819 35.6093C53.6061 35.4146 54.5878 35.0549 55.7549 34.6272C57.6201 33.9436 59.9592 33.0865 60.4382 32.4517C60.9573 31.7638 62.0598 30.9674 63.7456 30.0626V29.4208C64.8089 29.0558 65.5056 28.8733 65.8359 28.8733C65.9417 28.8733 66.0553 28.8872 66.1718 28.9014C66.6004 28.9538 67.0694 29.0111 67.3473 28.4017C67.5002 28.0665 67.5438 27.7149 67.5839 27.3908C67.6366 26.9655 67.6834 26.5876 67.9638 26.3569C68.1632 26.1929 68.4153 25.9787 68.6617 25.7536C70.7983 30.0439 72 34.8816 72 40Z" fill="#B1003E"/>
<path fill-rule="evenodd" clip-rule="evenodd" d="M67.8367 24.2053C67.6819 24.3259 67.4889 24.4613 67.2802 24.6077C66.9165 24.8628 66.5054 25.1512 66.1659 25.4529C65.6778 25.8865 64.6565 26.4181 63.102 27.0476C62.1249 26.1727 61.4825 25.8074 61.1748 25.9517C61.0909 25.991 60.9109 26.0815 60.6631 26.2061C59.5486 26.7664 57.0636 28.0159 55.7807 28.4017C55.0091 28.6337 53.3046 29.6715 51.6024 30.7079C49.845 31.7778 48.0901 32.8463 47.3662 33.0255C45.9411 33.3782 44.7403 33.7849 44.1172 34.2552C43.6814 34.5842 43.1697 34.5898 42.5993 34.5961C42.3543 34.5988 42.0984 34.6016 41.8331 34.6302C41.6486 34.6501 41.4177 34.7922 41.1179 34.9766C40.6938 35.2374 40.132 35.5829 39.369 35.7875C39.2021 35.9474 39.0631 36.2206 38.9519 36.6071C38.0785 39.1601 37.4469 40.8374 37.0572 41.6388C36.6675 42.4402 35.9705 43.5361 34.9664 44.9265C35.7964 45.8737 36.2114 46.5249 36.2114 46.8802C36.2114 47.413 36.1196 50.4324 35.8305 51.8466C35.6378 52.7895 35.442 57.5164 35.243 66.0273C35.2431 67.5035 35.095 68.4167 34.7986 68.7669C34.3541 69.2922 33.8378 70.7064 33.8378 71.091C33.8378 71.1603 33.7873 71.2615 33.7046 71.3809C19.0462 68.4565 8 55.5182 8 40C8 22.3269 22.3269 8 40 8C51.929 8 62.3335 14.5274 67.8367 24.2053ZM22.291 26.3134C23.0666 25.4329 24.7288 24.9285 27.2774 24.8001C27.6361 24.9562 27.8042 25.0814 27.7815 25.1757C27.7589 25.2699 27.6562 25.3214 27.4734 25.33L28.251 26.0658C28.171 26.4007 28.1311 26.6403 28.1311 26.7845C28.1311 26.9843 28.2249 27.2273 28.3068 27.4395C28.3703 27.6041 28.4267 27.7501 28.4267 27.8432C28.4267 28.358 28.5834 28.7154 28.8654 29.2819C29.0533 29.6596 29.0533 30.2521 28.8654 31.0592L29.9572 30.0122C30.8162 29.5124 31.4439 29.3414 31.8401 29.4991C32.2363 29.6567 33.7981 29.4995 36.5254 29.0275C36.6853 28.1974 36.7653 27.6687 36.7653 27.4414C36.7653 27.3384 36.8058 27.2128 36.8501 27.0755C36.9527 26.7578 37.0756 26.377 36.7653 26.0658C36.4688 25.7686 36.4688 25.075 36.7653 23.985C36.2897 22.9186 35.8759 22.1843 35.5239 21.7823C35.0916 21.2886 35.1551 20.6377 35.1923 20.256C35.2006 20.1714 35.2075 20.1001 35.2075 20.0465C35.2075 19.8498 35.313 19.3475 35.5239 18.5396C35.7097 18.1875 35.8857 18.0115 36.0519 18.0115C36.2181 18.0115 36.3759 18.3804 36.5254 19.1182L37.5175 19.3913C37.8823 20.3949 38.0646 21.1919 38.0646 21.7823C38.0646 22.6679 38.3947 23.7211 38.7461 23.985C38.9804 24.161 39.7986 24.161 41.2008 23.985C41.0574 26.8622 40.9857 28.5431 40.9857 29.0275C40.9857 29.7541 40.1005 31.6735 39.6103 32.3095C39.2834 32.7335 37.9213 33.406 35.5239 34.327L36.5254 35.2477L36.5229 35.2771C36.781 35.3472 37.0442 35.4373 37.2525 35.5086C37.4947 35.5915 37.6628 35.6491 37.6628 35.6204C37.7118 35.7781 37.6507 36.3383 37.331 37.2076C37.2935 37.3096 37.254 37.4176 37.2127 37.5306C36.89 38.4131 36.4577 39.5956 36.0034 40.5622C35.0055 42.685 33.8477 44.0567 33.8432 44.0523C33.7956 44.3682 33.8877 45.5117 33.981 45.8614C33.981 45.8614 33.981 48.3873 31.9969 48.7497L31.0099 47.8987C31.0099 47.8987 32.8817 47.4082 32.606 45.4845C32.5549 45.1278 32.48 44.4672 32.606 43.8453C32.5973 43.8261 32.6222 43.7503 32.6741 43.6279L31.945 43.431L28.8654 42.8843L26.5353 42.3928L22.4842 46.5404C22.5152 47.1578 22.5152 47.5747 22.4842 47.791C22.443 48.0785 22.3541 48.2865 22.2818 48.4553C22.2277 48.5819 22.1829 48.6865 22.1747 48.7863C22.1628 48.9306 22.2505 49.1172 22.3288 49.2838C22.3816 49.3964 22.4302 49.4998 22.4409 49.5748C22.4984 49.9801 22.378 50.1071 22.297 50.1927L22.291 50.199C22.0878 50.4143 21.6496 50.1461 20.9762 49.3944C20.3049 49.4343 19.8432 49.3425 19.5912 49.1192C19.3392 48.8959 19.0466 47.8063 18.7135 45.8506L19.2076 44.3474L21.764 38.057L23.3017 35.2477L23.933 33.321L24.847 32.8C24.1521 32.3998 23.637 32.0243 23.3017 31.6735C22.9663 31.3227 22.57 30.7689 22.1127 30.0122C21.456 28.4268 21.5154 27.1939 22.291 26.3134Z" fill="#B1003E"/>
</svg>

<svg xmlns="http://www.w3.org/2000/svg" viewBox="0 0 80 80">
  <rect width="100%" height="100%" fill="#fff"/>
  <path fill="#B1003E" d="M72 40a32 32 0 0 1-36.2 31.7c.5-.5.8-.7 1.1-.8l.5-.3c.4-.4 1.2-1.4.8-1.8-.3-.3-.4-1-.4-2 .6-.3 1-.4 1.3-.4.2 0 .2-.4.3-1 0-.5 0-1.3.3-2.2.4-1 1.3-6.6 2.7-16.7.8-2.6 1.4-4 1.7-4.2l3.7-3 5.6-3.7c.2-.2 1.2-.5 2.4-1 1.8-.7 4.2-1.5 4.6-2.1.6-.7 1.7-1.5 3.3-2.4v-.7l2.1-.5h.4c.4 0 .9.1 1.1-.5.2-.3.2-.7.3-1 0-.4 0-.8.4-1l.7-.6C70.8 30 72 34.8 72 40Z"/>
  <path fill="#B1003E" fill-rule="evenodd" d="m67.8 24.2-.5.4-1.1.9c-.5.4-1.5 1-3.1 1.5-1-.8-1.6-1.2-2-1l-.4.2c-1.2.6-3.6 1.8-5 2.2-.7.2-2.4 1.3-4.1 2.3-1.8 1-3.5 2.1-4.2 2.3a10 10 0 0 0-3.3 1.3c-.4.3-1 .3-1.5.3h-.8l-.7.4c-.4.2-1 .6-1.7.8a54.9 54.9 0 0 1-2.3 5.9L35 44.8c.8 1 1.2 1.6 1.2 2 0 .5 0 3.5-.4 5-.2.9-.4 5.6-.6 14.1 0 1.5-.1 2.4-.4 2.8-.4.5-1 2-1 2.3l-.1.3a32 32 0 1 1 34.1-47.2Zm-45.5 2.1c.8-.9 2.4-1.4 5-1.5l.5.4-.3.1.8.8-.2.7.2.6.1.4c0 .6.2 1 .5 1.5.2.4.2 1 0 1.8l1-1c1-.6 1.5-.8 2-.6.3.2 1.9 0 4.6-.5l.3-1.6v-.3c.2-.3.3-.7 0-1-.3-.3-.3-1 0-2.1l-1.3-2.2c-.4-.5-.3-1.2-.3-1.5V20l.3-1.5c.2-.3.4-.5.6-.5.1 0 .3.4.4 1.1l1 .3c.4 1 .6 1.8.6 2.4 0 .9.3 2 .6 2.2.3.2 1.1.2 2.5 0l-.2 5c0 .8-.9 2.7-1.4 3.3a13 13 0 0 1-4 2l1 1 .7.2.4.1c0 .2 0 .7-.4 1.6v.3c-.4 1-.8 2.1-1.3 3-1 2.2-2.2 3.6-2.2 3.6 0 .3 0 1.4.2 1.8 0 0 0 2.5-2 2.8l-1-.8s1.9-.5 1.6-2.4v-1.9l-.7-.2-3-.5-2.4-.5-4 4.1v1.3l-.2.7-.1.3.1.5.1.3c.1.4 0 .5-.1.6-.2.2-.7 0-1.3-.8-.7 0-1.2 0-1.4-.3-.3-.2-.6-1.3-.9-3.2l.5-1.6 2.6-6.2 1.5-2.9.6-1.9 1-.5a7 7 0 0 1-1.6-1.1 10 10 0 0 1-1.2-1.7c-.6-1.6-.6-2.8.2-3.7Z" clip-rule="evenodd"/>
</svg>
